tests/fixtures/interpolation-divergence-2/expected.canonical.cube
LUT_3D_SIZE 2
0 0 0
0 0 0
0 0 0
1 0 0
0 0 0
0 1 0
0 0 1
1 1 1
