tests/fixtures/affine-cross-channel-3/input.cube
# Affine cross-channel 3x3x3 fixture.
LUT_3D_SIZE 3
0.0625 0.125 0.1875
0.3125 0.1875 0.3125
0.5625 0.25 0.4375
0.1875 0.3125 0.25
0.4375 0.375 0.375
0.6875 0.4375 0.5
0.3125 0.5 0.3125
0.5625 0.5625 0.4375
0.8125 0.625 0.5625
0.125 0.25 0.375
0.375 0.3125 0.5
0.625 0.375 0.625
0.25 0.4375 0.4375
0.5 0.5 0.5625
0.75 0.5625 0.6875
0.375 0.625 0.5
0.625 0.6875 0.625
0.875 0.75 0.75
0.1875 0.375 0.5625
0.4375 0.4375 0.6875
0.6875 0.5 0.8125
0.3125 0.5625 0.625
0.5625 0.625 0.75
0.8125 0.6875 0.875
0.4375 0.75 0.6875
0.6875 0.8125 0.8125
0.9375 0.875 0.9375
